!!!COM: Music21
!!!OTL: Marcha Procesional de Vilacan
!!!OMV: pezas_marchas_marcha-procesional-de-vilacan_marcha-procesional-de-vilacan-partitura.musicxml
**kern
*I"Bagpipes
*I'Bag
*clefG^2
*k[]
*M6/8
=1
!LO:TX:a:t=Adagio
*MM70
!LO:TX:a:t=[quarter]=70
2r
8r
8gg
=
8ffL
16ddL
16eeJ
8ffJ
8ggL
8dd
8ggJ
=
8ffL
16ddL
16eeJ
8ffJ
4cc
8gg
=
8ffL
16ddL
16eeJ
8ffJ
8ggL
8dd
8ggJ
=
8ffL
16ddL
16eeJ
8ffJ
4cc
8ccc
=
8bbL
16ggL
16aaJ
8bbJ
8cccL
8ddd
8cccJ
=
8.bbL
16aaK
8cccJ
8bbL
8gg
8bbJ
!!linebreak:original
=
8aaL
16ggL
16aa
16bb
16cccJJ
4ddd
8gg
=
8aaL
16ggL
16aa
16bb
16aaJJ
4gg
8gg
=
*-
